src/assets/coins.svg

<svg width="18" height="18" fill="none" xmlns="http://www.w3.org/2000/svg"><path d="M0 14.249v1.501C0 16.991 3.023 18 6.75 18s6.75-1.009 6.75-2.25v-1.501c-1.452 1.023-4.106 1.501-6.75 1.501S1.452 15.272 0 14.249ZM11.25 4.5C14.977 4.5 18 3.491 18 2.25S14.977 0 11.25 0 4.5 1.009 4.5 2.25 7.523 4.5 11.25 4.5ZM0 10.56v1.815c0 1.241 3.023 2.25 6.75 2.25s6.75-1.009 6.75-2.25v-1.814c-1.452 1.195-4.11 1.814-6.75 1.814-2.64 0-5.298-.619-6.75-1.814v-.001Zm14.625.388C16.639 10.558 18 9.833 18 9V7.499c-.816.576-2.014.97-3.375 1.213v2.236ZM6.75 5.625C3.023 5.625 0 6.884 0 8.438 0 9.99 3.023 11.25 6.75 11.25s6.75-1.259 6.75-2.813c0-1.553-3.023-2.812-6.75-2.812Zm7.71 1.98c2.11-.38 3.54-1.126 3.54-1.98V4.124c-1.248.882-3.393 1.357-5.65 1.47 1.037.502 1.8 1.177 2.11 2.01v.001Z" fill="#F7A800"/></svg>

<svg width="18" height="18" viewBox="0 0 18 18" fill="none" xmlns="http://www.w3.org/2000/svg">
<path d="M0 14.249V15.75C0 16.991 3.023 18 6.75 18C10.477 18 13.5 16.991 13.5 15.75V14.249C12.048 15.272 9.394 15.75 6.75 15.75C4.106 15.75 1.452 15.272 0 14.249ZM11.25 4.5C14.977 4.5 18 3.491 18 2.25C18 1.009 14.977 0 11.25 0C7.523 0 4.5 1.009 4.5 2.25C4.5 3.491 7.523 4.5 11.25 4.5ZM0 10.56V12.375C0 13.616 3.023 14.625 6.75 14.625C10.477 14.625 13.5 13.616 13.5 12.375V10.561C12.048 11.756 9.39 12.375 6.75 12.375C4.11 12.375 1.452 11.756 0 10.561V10.56ZM14.625 10.948C16.639 10.558 18 9.833 18 9V7.499C17.184 8.075 15.986 8.469 14.625 8.712V10.948ZM6.75 5.625C3.023 5.625 0 6.884 0 8.438C0 9.99 3.023 11.25 6.75 11.25C10.477 11.25 13.5 9.991 13.5 8.437C13.5 6.884 10.477 5.625 6.75 5.625ZM14.46 7.605C16.57 7.225 18 6.479 18 5.625V4.124C16.752 5.006 14.607 5.481 12.35 5.594C13.387 6.096 14.15 6.771 14.46 7.604V7.605Z" fill="#F7A800"/>
</svg>
